X:1
T:Title
%%score { ( 1 4 ) | ( 2 3 ) }
L:1/8
Q:1/4=100
M:4/4
K:Bb
V:1 treble nm="Grand Piano"
V:4 treble 
V:2 bass 
V:3 bass 
V:1
 [DB]>[DB] [DB]>[DB] [EA]2 [EA]2 | [EG]>[EG] [EG]>[EG] [DF]4 | E>E F>E D2 [DB]2 | %3
w: C.~Austin~Miles * * * * *|||
 [=EA]>[EA] [EG]>[Ec] c2 F2 | [DB]>[DB] [DB]>[DB] [EA]2 [EA]2 | [EG]>[EG] [EG]>[EG] [DF]4 | %6
w: |||
 [Fd]>[Fd] [Fd]>[DB] c2 G2 | B>B A>A [DB]4 | [DB]>[DA] [DG]>F D2 [DF]2 | z4 [EA]4[K:bass] | %10
w: ||||
 [EA]>A C>D E2 [EF]2 | [EG]>[EG] [EA]>G [F,DF]4 | [DB]>[DA] [DG]>F D2 [DF]2 | B>B c>B e4 | %14
w: ||||
 B>B A>B f2 d2 | %15
w: |
 B>B d>c [DB]4[Q:1/4=98][Q:1/4=96][Q:1/4=94][Q:1/4=92][Q:1/4=90][Q:1/4=88][Q:1/4=85][Q:1/4=83][Q:1/4=81][Q:1/4=79][Q:1/4=77] |] %16
w: |
V:2
 [B,,F,]>[B,,F,] [B,,F,]>[B,,F,] [B,,G,]2 [B,,G,]2 | [B,,A,]>[B,,A,] [B,,A,]>[B,,A,] [B,,B,]4 | %2
 [F,A,C]>[F,A,C] [F,A,D]>[F,A,C] [B,,F,B,]2 [B,,F,]2 | [C,C]>[C,C] [C,B,]>[C,B,] [F,A,E]4 | %4
 [B,,F,]>[B,,F,] [B,,F,]>[B,,F,] [B,,G,]2 [B,,G,]2 | [B,,A,]>[B,,A,] [B,,A,]>[B,,A,] [B,,B,]4 | %6
 [B,,B,]>[B,,B,] [B,,B,]>[B,,B,] [E,G,E]2 [E,B,E]2 | [F,B,D]>[F,B,D] [F,CE]>[F,CE] [B,,B,]4 | %8
 [B,,F,]2 z z/ D/ [B,,F,]2 [F,,F,]2 | [B,,F,]2 [F,,F,]2 F,4 | z z/ E/ z z/ C/ [C,F,C]2 [F,,F,]2 | %11
 [C,F,]2 z z/ E/ B,,2 F,,2 | [B,,F,]2 z z/ D/ [B,,F,]2 [F,,F,]2 | %13
 [B,DF]>[B,DF] [_A,DF]>[A,DF] [G,B,G]4 | [G,CE]>[G,CE] [G,CE]>[G,CE] [F,DF]2 [F,B,F]2 | %15
 [F,DF]>[F,DF] [F,B,F]>[F,A,E] [B,,B,]4 |] %16
V:3
 x8 | x8 | x8 | x8 | x8 | x8 | x8 | x8 | z2 [F,,F,]2 z4 | z4 C,2 z2 | [C,F,]2 [F,,F,]2 z4 | %11
 z2 [F,,F,]2 z4 | z2 [F,,F,]2 z4 | x8 | x8 | x8 |] %16
V:4
 x8 | x8 | x8 | x8 | x8 | x8 | x8 | x8 | x8 | [DB]>[DA] [DG]>[DF] z2[K:bass] F,,2 | x8 | x8 | x8 | %13
 x8 | x8 | x8 |] %16

